X: 17
T: Missa Dio te salvi Gotterello / Gloria
N: Derived from Mar1004b-Missa_Dio_te_salvi_Gotterello-Gloria.krn
C: Johannes Martini
%%abc-version 2.0
%%abcx-abcm2ps-target-version 5.9.1 (29 Sep 2008)
%%abc-creator hum2abc beta
%%abcx-conversion-date 2019/02/17 07:19:40
%%abc-edited-by Jesse Rodin
%%abc-edited-by Chris Gage 01-22-2014
%%abcx-initial-encoding-date 2015/03/07/
%%humdrum-veritas 1323080684
%%humdrum-veritas-data 2382720893
%%linebreak <none>
%%barnumbers 0
L: 1/4
M: 4/2
Q: 1/2=120
%%staves [1 2 3 4]
V: 1 clef=treble
V: 2 clef=treble-8
V: 3 clef=treble-8
V: 4 clef=bass
K: C
[V:1] A3AA2A2 | 
[V:2] z8 | 
[V:3] z8 | 
[V:4] A,3A,F,2F,2 | 
[V:1] G2FEF2F2 | 
[V:2] d3dd2d2 | 
[V:3] z8 | 
[V:4] G,2G,2D,2D,2 | 
[V:1] E2z2G2G2 | 
[V:2] c2A2B2B2 | 
[V:3] z8 | 
[V:4] A,2G,F,E,2E,2 | 
[V:1] A2GFE2E2 | 
[V:2] A2z2c2c2 | 
[V:3] z8 | 
[V:4] F,2G,2A,4 | 
[V:1] D2z2F2F2 | 
[V:2] d2cBA2A2 | 
[V:3] z8 | 
[V:4] D,4z2D,2 | 
[V:1] G2FED3C | 
[V:2] G2z2B2B2 | 
[V:3] z8 | 
[V:4] E,3F,G,4 | 
[V:1] E4z4 | 
[V:2] c2BAG4 | 
[V:3] z8 | 
[V:4] C,4B,,4 | 
[V:1] E4E2E2 | 
[V:2] A4c2c2 | 
[V:3] A6A2 | 
[V:4] A,,8 | 
[V:1] F4E2F2- | 
[V:2] d2A2c4- | 
[V:3] A4A4 | 
[V:4] D,4C,2A,,2 | 
[V:1] FEE4D2 | 
[V:2] c4A2B2 | 
[V:3] G2E2F4 | 
[V:4] C,4D,4 | 
[V:1] E4G4- | 
[V:2] c4c2B2 | 
[V:3] E8 | 
[V:4] C,6E,2- | 
[V:1] G2A2B4 | 
[V:2] e4d4 | 
[V:3] G8 | 
[V:4] E,2D,C,B,,4 | 
[V:1] c4A2GF | 
[V:2] e2f4ed | 
[V:3] A4F2D2 | 
[V:4] A,,4D,4 | 
[V:1] G4F4 | 
[V:2] c4d4 | 
[V:3] E4D4 | 
[V:4] z2E,2F,2D,2 | 
[V:1] G2E2D2E2- | 
[V:2] e2c2B2c2 | 
[V:3] z2G2G2G2 | 
[V:4] C,4G,,2C,2 | 
[V:1] E2D4^C2 | 
[V:2] A2B2A4 | 
[V:3] F2G2E4 | 
[V:4] D,2G,,2A,,4 | 
[V:1] D8 | 
[V:2] B4A4 | 
[V:3] D4z4 | 
[V:4] z2D,2D,2D,2 | 
[V:1] z8 | 
[V:2] z2d2d2d2 | 
[V:3] z8 | 
[V:4] C,2D,2B,,2B,,2 | 
[V:1] z2d2d2d2 | 
[V:2] c2d2B2B2 | 
[V:3] z8 | 
[V:4] A,,2z2G,4 | 
[V:1] c2A2B2B2 | 
[V:2] A4z4 | 
[V:3] z2d2d2d2 | 
[V:4] A,2F,2G,4 | 
[V:1] A4z2G2 | 
[V:2] e2d2e4 | 
[V:3] c2A2B2B2 | 
[V:4] A,2F,2E,4 | 
[V:1] A2c2B2A2- | 
[V:2] e2f2g2c2 | 
[V:3] A4G2A2 | 
[V:4] A,,4E,2F,2- | 
[V:1] A2d2c2B2- | 
[V:2] f2d2f2g2- | 
[V:3] c2B2A2d2- | 
[V:4] F,2G,2A,2G,2- | 
[V:1] B2A4^G2 | 
[V:2] gfede4 | 
[V:3] d2c2B4 | 
[V:4] G,2A,2E,4 | 
[V:1] A8 | 
[V:2] c4[M:3/1](3:2:2d4d2 | 
[V:3] A4z4 | 
[V:4] A,,4z4 | 
[V:1] [M:3/1]z12 | 
[V:2] c4A2B4B2 | 
[V:3] [M:3/1]z12 | 
[V:4] [M:3/1]A,4A,2G,4E,2 | 
[V:1] A4A2G4E2 | 
[V:2] A4d2e2c3B | 
[V:3] z12 | 
[V:4] F,6E,6 | 
[V:1] F6E4C2 | 
[V:2] d4d2B4A2 | 
[V:3] A4A2G4E2 | 
[V:4] D,4D,2E,4A,,2 | 
[V:1] D4C2E6- | 
[V:2] A4A2A4G2- | 
[V:3] F4E2E6 | 
[V:4] D,4A,,2A,,4C,2- | 
[V:1] E2D4C4D2 | 
[V:2] G2D4E4z2 | 
[V:3] G6A4A2 | 
[V:4] C,2B,,4A,,4D,2 | 
[V:1] E2F3EE4D2 | 
[V:2] z12 | 
[V:3] A2A2G2E2F2F2 | 
[V:4] C,2A,,2C,4D,4 | 
[V:1] E12 | 
[V:2] G4A2c4d2 | 
[V:3] E6z6 | 
[V:4] C,6A,,4B,,2 | 
[V:1] [M:4/2]z8 | 
[V:2] [M:4/2]e2d2f2ed | 
[V:3] [M:4/2]G4F2G2 | 
[V:4] [M:4/2]C,2G,,2D,2C,B,, | 
[V:1] z4G4 | 
[V:2] c2d4c2 | 
[V:3] A2F2E4 | 
[V:4] A,,2A,2B,2G,2 | 
[V:1] F2G2A2F2 | 
[V:2] d4z4 | 
[V:3] D4z2d2- | 
[V:4] A,G,F,E,D,4 | 
[V:1] E4D4 | 
[V:2] z4f4 | 
[V:3] d2c2B2A2 | 
[V:4] A,4z2D,2 | 
[V:1] z2A4G2 | 
[V:2] g2f4e2 | 
[V:3] c6B2 | 
[V:4] C,2F,4G,2 | 
[V:1] F2E2G3F | 
[V:2] d2e3dB2 | 
[V:3] A4G4 | 
[V:4] D,2C,2E,4 | 
[V:1] EDD4^C2 | 
[V:2] c2A4A2 | 
[V:3] A2F2E4 | 
[V:4] A,,2D,2A,,4 | 
[V:1] D4F4 | 
[V:2] (3A2B2c2(3d2A2B2 | 
[V:3] D8 | 
[V:4] z4D,4 | 
[V:1] E2G4F2 | 
[V:2] (3:2:4c4c2A4F2 | 
[V:3] C4D4 | 
[V:4] E,4F,3E, | 
[V:1] E2DCD4 | 
[V:2] (3:2:7G2A2_B2-B AF2G2 | 
[V:3] E2F2D3C | 
[V:4] C,2D,2B,,4 | 
[V:1] C8 ||  
[V:2] A8 ||  
[V:3] E8 ||  
[V:4] A,,8 ||  
[V:1]  [K:C] [K:clef=treble][M:4/2]z8 | 
[V:2]  [K:C] [K:clef=treble-8][M:4/2]d2c2d2cB | 
[V:3]  [K:C] [K:clef=treble-8][M:4/2]z8 | 
[V:4]  [K:C] [K:clef=bass][M:4/2]z8 | 
[V:1] z8 | 
[V:2] A2z2A2c2- | 
[V:3] z8 | 
[V:4] D,2C,2D,D,2C,/B,,/ | 
[V:1] z8 | 
[V:2] cBG2F2_B2- | 
[V:3] z8 | 
[V:4] A,,2B,,C,D,4 | 
[V:1] z8 | 
[V:2] B2A4G2 | 
[V:3] z8 | 
[V:4] C,2A,,2_B,,4 | 
[V:1] A2G2A2GF | 
[V:2] A2d2c2e2- | 
[V:3] z8 | 
[V:4] A,,2B,,2A,,2C,2- | 
[V:1] E4F2F2 | 
[V:2] edc2d4 | 
[V:3] A2G2AA2G/F/ | 
[V:4] C,D,E,2D,4 | 
[V:1] G2FED4 | 
[V:2] e2e2A3B | 
[V:3] E4F2F2 | 
[V:4] C,4D,2F,2 | 
[V:1] z2A4_B2 | 
[V:2] c2d3ef2- | 
[V:3] G2FED4 | 
[V:4] E,2D,2F,4 | 
[V:1] A2GFE2D2 | 
[V:2] fed2c2d2- | 
[V:3] z2A4B2 | 
[V:4] D,3B,,C,2G,,2 | 
[V:1] F4G2F2- | 
[V:2] dAd2c2d2 | 
[V:3] A2GFE2D2 | 
[V:4] D,4z4 | 
[V:1] FED4^C2 | 
[V:2] A8 | 
[V:3] F4E4 | 
[V:4] D,4A,,4 | 
[V:1] D8 ||  
[V:2] A8 ||  
[V:3] D8 ||  
[V:4] A,8 ||  
[V:1]  [K:C] [K:clef=treble][M:2/1]E8 | 
[V:2]  [K:C] [K:clef=treble-8][M:2/1]c8 | 
[V:3]  [K:C] [K:clef=treble-8][M:2/1]A8- | 
[V:4]  [K:C] [K:clef=bass][M:2/1]A,,8 | 
[V:1] E4E4 | 
[V:2] c4c4 | 
[V:3] A4A4 | 
[V:4] A,,4A,,4 | 
[V:1] F8 | 
[V:2] d8 | 
[V:3] A8 | 
[V:4] D,8 | 
[V:1] E4C4- | 
[V:2] e8- | 
[V:3] A8 | 
[V:4] C,4A,,4- | 
[V:1] C4F4- | 
[V:2] e4d4 | 
[V:3] A8 | 
[V:4] A,,4D,4 | 
[V:1] F2E2E4- | 
[V:2] B4c4 | 
[V:3] G4E4 | 
[V:4] E,4C,4 | 
[V:1] E2DCD4 | 
[V:2] A8 | 
[V:3] F8 | 
[V:4] D,8 | 
[V:1] E8 | 
[V:2] A4G4 | 
[V:3] E8 | 
[V:4] A,,4z4 | 
[V:1] z8 | 
[V:2] z8 | 
[V:3] G6A2 | 
[V:4] G,,3A,,B,,2C,2 | 
[V:1] z8 | 
[V:2] z8 | 
[V:3] B4A4- | 
[V:4] D,2E,2F,2D,2- | 
[V:1] z8 | 
[V:2] z8 | 
[V:3] A2G2F4 | 
[V:4] D,C,B,,2A,,2D,2 | 
[V:1] G6A2 | 
[V:2] G3AB2c2 | 
[V:3] E8 | 
[V:4] E,2F,2G,4 | 
[V:1] B4A4- | 
[V:2] d2e2f2d2- | 
[V:3] D8 | 
[V:4] F,8 | 
[V:1] A2G2F4 | 
[V:2] dcB2A2d2- | 
[V:3] z8 | 
[V:4] D,8 | 
[V:1] E8 | 
[V:2] d2^cB^c4 | 
[V:3] z8 | 
[V:4] A,,8 | 
[V:1] D8 | 
[V:2] d2f4ed | 
[V:3] D8 | 
[V:4] F,8 | 
[V:1] z4A4 | 
[V:2] c4d4- | 
[V:3] E4D4 | 
[V:4] G,4F,4 | 
[V:1] A4G4 | 
[V:2] d4B4 | 
[V:3] F4G4 | 
[V:4] D,4E,4 | 
[V:1] E4F4- | 
[V:2] c8 | 
[V:3] A8 | 
[V:4] A,,8 | 
[V:1] F4D4- | 
[V:2] A4_B4 | 
[V:3] D4F4 | 
[V:4] D,8 | 
[V:1] D4^C4 | 
[V:2] A4A4- | 
[V:3] E8 | 
[V:4] A,,8 | 
[V:1] D8 | 
[V:2] A2F2F3G | 
[V:3] D8- | 
[V:4] D,4D,2F,2- | 
[V:1] z4D4 | 
[V:2] A4A2_B2- | 
[V:3] D8 | 
[V:4] F,2F,2D,4- | 
[V:1] D2D4D2 | 
[V:2] B2A4G2 | 
[V:3] z8 | 
[V:4] D,2C,2_B,,4 | 
[V:1] C4A,4 | 
[V:2] A2E2F2EF | 
[V:3] z8 | 
[V:4] A,,8 | 
[V:1] B,4B,2A,2- | 
[V:2] G4D2F2- | 
[V:3] z4d4- | 
[V:4] G,,4G,,2D,2- | 
[V:1] A,2G,F,G,4 | 
[V:2] FEDCD4 | 
[V:3] d4d4 | 
[V:4] D,C,B,,A,,B,,4 | 
[V:1] A,8 | 
[V:2] E6F2 | 
[V:3] c4A4 | 
[V:4] A,,2C,4B,,A,, | 
[V:1] z8 | 
[V:2] GABcd2e2 | 
[V:3] B4B2A2- | 
[V:4] G,,2D,4C,2 | 
[V:1] A4B4 | 
[V:2] f2efg2e2- | 
[V:3] A2GFG4 | 
[V:4] D,2F,2E,4 | 
[V:1] c6A2- | 
[V:2] e2c2e2f2 | 
[V:3] A4z4 | 
[V:4] A,,3B,,C,2D,2 | 
[V:1] A2G2F4 | 
[V:2] e4A4 | 
[V:3] c4d4 | 
[V:4] E,4D,4 | 
[V:1] E4A4- | 
[V:2] z2A2c2d2 | 
[V:3] c4A4 | 
[V:4] A,4F,4 | 
[V:1] A2GFG4 | 
[V:2] e2g3fed | 
[V:3] B8 | 
[V:4] E,8 | 
[V:1] A8- | 
[V:2] e4d2d2- | 
[V:3] A8 | 
[V:4] A,,4D,4- | 
[V:1] A8 | 
[V:2] d2cBc4 | 
[V:3] z8 | 
[V:4] D,4A,4 | 
[V:1] z8 | 
[V:2] B2e4dc | 
[V:3] z8 | 
[V:4] G,2G,4F,E, | 
[V:1] A4G2G2- | 
[V:2] d4e4 | 
[V:3] z8 | 
[V:4] F,4E,4 | 
[V:1] G2FEF4 | 
[V:2] c2d2A2c2- | 
[V:3] z8 | 
[V:4] z2D,4C,B,, | 
[V:1] E4D2D2- | 
[V:2] cBG3AB2- | 
[V:3] z8 | 
[V:4] C,4B,,4 | 
[V:1] D2CB,C4 | 
[V:2] B2AG^F4 | 
[V:3] z8 | 
[V:4] G,,4A,,4 | 
[V:1] B,4A,2C2- | 
[V:2] G2d2c2e2- | 
[V:3] z8 | 
[V:4] G,,4A,,3B,, | 
[V:1] C2B,A,^G,4 | 
[V:2] e2dcB4 | 
[V:3] z8 | 
[V:4] C,2D,2E,4 | 
[V:1] A,4z2C2- | 
[V:2] A2c4c2 | 
[V:3] A8- | 
[V:4] A,,8- | 
[V:1] C2C2E4 | 
[V:2] e4z2A2 | 
[V:3] A8- | 
[V:4] A,,8- | 
[V:1] z2A,2C2D2 | 
[V:2] c2d2e4 | 
[V:3] A8- | 
[V:4] A,,8- | 
[V:1] E4A,4 | 
[V:2] A4e4 | 
[V:3] A8- | 
[V:4] A,,8 | 
[V:1] A4G2F2- | 
[V:2] f8 | 
[V:3] A8 | 
[V:4] D,8 | 
[V:1] F2G2E4- | 
[V:2] e8 | 
[V:3] G4A4 | 
[V:4] E,4A,,4 | 
[V:1] E2DCD4 | 
[V:2] z4A4 | 
[V:3] F8 | 
[V:4] D,8 | 
[V:1] E8 | 
[V:2] c4B4 | 
[V:3] E8 | 
[V:4] C,4G,4 | 
[V:1] z8 | 
[V:2] B2c4d2 | 
[V:3] z8 | 
[V:4] G,2A,4G,F, | 
[V:1] G4G2A2- | 
[V:2] e2dcB2A2- | 
[V:3] z8 | 
[V:4] E,4E,2F,2- | 
[V:1] A2GFE4 | 
[V:2] A2d4^c2 | 
[V:3] z8 | 
[V:4] F,2G,2A,4 | 
[V:1] D4G4- | 
[V:2] d4B4 | 
[V:3] z4G4 | 
[V:4] D,4E,4 | 
[V:1] G2F2D4 | 
[V:2] c4d4 | 
[V:3] G8 | 
[V:4] C,4B,,4 | 
[V:1] C4E4- | 
[V:2] e4A3B | 
[V:3] A8 | 
[V:4] A,,6C,2- | 
[V:1] E2D2D4- | 
[V:2] c2d2A4 | 
[V:3] G4F4 | 
[V:4] C,2B,,2D,4 | 
[V:1] D4^C4 | 
[V:2] z4A4 | 
[V:3] E8 | 
[V:4] A,,8 | 
[V:1] D8 | 
[V:2] F6A2- | 
[V:3] D8- | 
[V:4] A,4F,4- | 
[V:1] z8 | 
[V:2] A4D4 | 
[V:3] D8 | 
[V:4] F,2A,6 | 
[V:1] [M:3/1]z12 | 
[V:2] [M:3/1]A8B4 | 
[V:3] [M:3/1]z12 | 
[V:4] [M:3/1]D,8D,4 | 
[V:1] z12 | 
[V:2] A4c6B2 | 
[V:3] z12 | 
[V:4] C,8C,4 | 
[V:1] F8D4 | 
[V:2] A6F2G4 | 
[V:3] d8d4 | 
[V:4] D,6C,2B,,4 | 
[V:1] E8E4 | 
[V:2] A12- | 
[V:3] c8c4 | 
[V:4] A,,12 | 
[V:1] F6E2D4 | 
[V:2] A8z4 | 
[V:3] d6c2B4 | 
[V:4] D,12 | 
[V:1] C8z4 | 
[V:2] A4c4d4 | 
[V:3] A12 | 
[V:4] F,8D,4 | 
[V:1] A8A4- | 
[V:2] f6e2c4 | 
[V:3] z12 | 
[V:4] D,8F,4- | 
[V:1] A4G8 | 
[V:2] d8^c4 | 
[V:3] z12 | 
[V:4] F,4E,8 | 
[V:1] F8z4 | 
[V:2] d8e4 | 
[V:3] A8A4 | 
[V:4] D,8C,4 | 
[V:1] A8F4 | 
[V:2] e8f4- | 
[V:3] c8d4 | 
[V:4] A,,8D,4 | 
[V:1] A4G6F2 | 
[V:2] f4d4e4 | 
[V:3] c4B4c4 | 
[V:4] F,4G,4E,4 | 
[V:1] F8E4 | 
[V:2] c8c4 | 
[V:3] A4G8 | 
[V:4] F,4C,8 | 
[V:1] F8z4 | 
[V:2] A8d4 | 
[V:3] F12 | 
[V:4] D,8D,4 | 
[V:1] G6A2B4 | 
[V:2] c4B2A2G4 | 
[V:3] z12 | 
[V:4] E,8G,4 | 
[V:1] A6G2F4 | 
[V:2] c6A2B4 | 
[V:3] z12 | 
[V:4] F,4D,8 | 
[V:1] E8D4 | 
[V:2] c8d4 | 
[V:3] G6A2B4 | 
[V:4] C,8G,,4 | 
[V:1] F6E2F4 | 
[V:2] d6c2A4 | 
[V:3] A6G2F4 | 
[V:4] D,12 | 
[V:1] G8F4 | 
[V:2] c8A4- | 
[V:3] E8F4 | 
[V:4] C,8D,4 | 
[V:1] E4D8 | 
[V:2] A4D8 | 
[V:3] A8^G4 | 
[V:4] A,,4B,,8 | 
[V:1] C6D2E4 | 
[V:2] E12 | 
[V:3] A12- | 
[V:4] A,,12 | 
[V:1] F8E4 | 
[V:2] z12 | 
[V:3] A12 | 
[V:4] D,8C,4 | 
[V:1] A8G4 | 
[V:2] A8B4 | 
[V:3] F8G4 | 
[V:4] D,4F,4E,4 | 
[V:1] F4E6D2 | 
[V:2] c6B2A4 | 
[V:3] A4G6F2 | 
[V:4] A,,4C,6D,2 | 
[V:1] D8^C4 | 
[V:2] G4A8 | 
[V:3] D4E8 | 
[V:4] B,,4A,,8 | 
[V:1] D12 |]  
[V:2] A12 |]  
[V:3] D12 |]  
[V:4] D,12 |]  



